crates/photo-core/tests/fixtures/adobe-camera-raw-sidecar.xmp
<?xpacket begin='﻿' id='W5M0MpCehiHzreSzNTczkc9d'?>
<x:xmpmeta xmlns:x="adobe:ns:meta/" x:xmptk="Adobe XMP Core">
  <rdf:RDF xmlns:rdf="http://www.w3.org/1999/02/22-rdf-syntax-ns#">
    <rdf:Description
      rdf:about=""
      xmlns:crs="http://ns.adobe.com/camera-raw-settings/1.0/"
      xmlns:pc="https://photo-cake.local/ns/1.0/"
      xmlns:xmp="http://ns.adobe.com/xap/1.0/"
      crs:Version="17.0"
      crs:ProcessVersion="15.4"
      crs:Exposure2012="+0.35"
      crs:Contrast2012="12"
      crs:Highlights2012="-40"
      crs:Shadows2012="+25"
      crs:Saturation="-7"
      pc:RecipeId="11111111-1111-4111-8111-111111111111"
      pc:TargetAssetId="22222222-2222-4222-8222-222222222222"
      xmp:CreatorTool="Adobe Photoshop Lightroom Classic" />
  </rdf:RDF>
</x:xmpmeta>
<?xpacket end='w'?>
